X:1
T: The Rose Among the Heather
M:4/4
L:1/8
R:Strathspey
K:Dmaj
|:(F/A>)  A>F/  (G/B>)  B>G/|(F/A>)  D>F/  E3 G|(F/A>)  A>F/  (G>B/) (d>B/)|1 (A/F> G>E/ D2 D2:|2 (A/F> G>E/ D2 D A|
|:(d>e/) (d>B/) (A/f>) d>B/|(A/F>) d>f/ e3 d|1 (f>g/) (f>e/) (d/B>) d>B/|(A/d>) e>c/ d2 d A:|2 (f>e/) (d>B/) (A/F>) d>B/|(A/F>) G>E/ D2 D2||
